X: 12
T: John Ryan's
Z: jsdansereau93
S: https://thesession.org/tunes/441#setting46412
R: polka
M: 2/4
L: 1/8
K: Dmaj
|:"D"dd B/c/d/B/|AF AF|"D"dd B/c/d/B/|AF ED|
"D"dd B/c/d/B/|AF Ad/e/|"D"fd "A"ec|1 "D"d2 d2:|2 "D"d2 d>e||
|:"D"fd de/f/|"G"gf ed|"D"fd A>d|fg "A"a>g|
"D"fd de/f/|"G"gf ed|"D"fd "A"ec|1 "D"d2 d>e:|2 "D"d2 d2||

